inst/assets/svg/wi-wind-beaufort-9.svg

<?xml version="1.0" encoding="UTF-8"?>
<svg xmlns="http://www.w3.org/2000/svg" xmlns:xlink="http://www.w3.org/1999/xlink" width="30pt" height="30pt" viewBox="0 0 30 30" version="1.1">
<g id="surface1086">
<path style=" stroke:none;fill-rule:nonzero;fill:rgb(0%,0%,0%);fill-opacity:1;" d="M 5.089844 13.5 C 5.089844 13.679688 5.148438 13.808594 5.261719 13.898438 C 5.378906 14.011719 5.519531 14.070313 5.679688 14.070313 L 16.078125 14.070313 C 16.261719 14.070313 16.410156 14.128906 16.539063 14.261719 C 16.671875 14.378906 16.738281 14.539063 16.738281 14.71875 C 16.738281 14.898438 16.671875 15.058594 16.539063 15.191406 C 16.410156 15.320313 16.261719 15.390625 16.078125 15.390625 C 15.898438 15.390625 15.738281 15.320313 15.609375 15.179688 C 15.480469 15.070313 15.351563 15.019531 15.210938 15.019531 C 15.050781 15.019531 14.910156 15.070313 14.800781 15.179688 C 14.691406 15.289063 14.640625 15.421875 14.640625 15.570313 C 14.640625 15.730469 14.699219 15.871094 14.808594 15.980469 C 15.171875 16.339844 15.589844 16.511719 16.078125 16.511719 C 16.570313 16.511719 16.988281 16.339844 17.339844 15.988281 C 17.691406 15.640625 17.859375 15.21875 17.859375 14.71875 C 17.859375 14.230469 17.691406 13.800781 17.339844 13.449219 C 16.988281 13.101563 16.570313 12.921875 16.078125 12.921875 L 5.679688 12.921875 C 5.519531 12.921875 5.378906 12.980469 5.261719 13.089844 C 5.140625 13.210938 5.089844 13.339844 5.089844 13.5 Z M 5.089844 11.480469 C 5.089844 11.648438 5.148438 11.78125 5.261719 11.871094 C 5.378906 11.980469 5.519531 12.03125 5.679688 12.03125 L 19.488281 12.03125 C 19.980469 12.03125 20.410156 11.851563 20.761719 11.511719 C 21.109375 11.160156 21.28125 10.738281 21.28125 10.238281 C 21.28125 9.75 21.109375 9.328125 20.761719 8.980469 C 20.410156 8.628906 19.988281 8.460938 19.488281 8.460938 C 19 8.460938 18.578125 8.628906 18.21875 8.96875 C 18.109375 9.089844 18.058594 9.238281 18.058594 9.390625 C 18.058594 9.550781 18.109375 9.691406 18.21875 9.789063 C 18.328125 9.890625 18.460938 9.941406 18.621094 9.941406 C 18.769531 9.941406 18.910156 9.890625 19.03125 9.78125 C 19.148438 9.660156 19.300781 9.601563 19.480469 9.601563 C 19.648438 9.601563 19.808594 9.660156 19.941406 9.78125 C 20.070313 9.898438 20.140625 10.050781 20.140625 10.230469 C 20.140625 10.410156 20.070313 10.570313 19.941406 10.699219 C 19.808594 10.828125 19.660156 10.898438 19.480469 10.898438 L 5.679688 10.898438 C 5.519531 10.898438 5.378906 10.960938 5.261719 11.070313 C 5.140625 11.179688 5.089844 11.320313 5.089844 11.480469 Z M 18.179688 19.761719 C 18.199219 20.148438 18.289063 20.488281 18.460938 20.78125 C 18.628906 21.070313 18.851563 21.289063 19.128906 21.449219 C 19.410156 21.609375 19.710938 21.71875 20.03125 21.789063 C 20.351563 21.859375 20.699219 21.898438 21.070313 21.898438 C 21.640625 21.898438 22.160156 21.789063 22.621094 21.578125 C 23.089844 21.371094 23.460938 21.101563 23.75 20.769531 C 24.039063 20.441406 24.28125 20.070313 24.480469 19.640625 C 24.679688 19.210938 24.808594 18.800781 24.890625 18.410156 C 24.96875 18.019531 25.011719 17.628906 25.011719 17.261719 C 25.011719 16.199219 24.738281 15.390625 24.199219 14.828125 C 23.660156 14.261719 22.941406 13.980469 22.03125 13.980469 C 21.101563 13.980469 20.308594 14.261719 19.671875 14.828125 C 19.03125 15.398438 18.699219 16.148438 18.699219 17.070313 C 18.699219 17.730469 18.910156 18.269531 19.328125 18.691406 C 19.75 19.109375 20.289063 19.320313 20.960938 19.320313 C 21.320313 19.320313 21.660156 19.25 22.011719 19.101563 C 22.351563 18.960938 22.589844 18.769531 22.730469 18.558594 L 22.761719 18.558594 C 22.640625 19.039063 22.449219 19.441406 22.179688 19.78125 C 21.910156 20.121094 21.558594 20.289063 21.121094 20.289063 C 20.828125 20.289063 20.640625 20.261719 20.53125 20.191406 C 20.410156 20.078125 20.320313 19.941406 20.289063 19.769531 L 18.179688 19.769531 Z M 20.75 16.878906 C 20.75 16.570313 20.851563 16.300781 21.039063 16.070313 C 21.230469 15.839844 21.519531 15.730469 21.898438 15.730469 C 22.238281 15.730469 22.5 15.820313 22.671875 15.988281 C 22.851563 16.160156 22.941406 16.421875 22.941406 16.75 C 22.941406 16.839844 22.921875 16.949219 22.878906 17.058594 C 22.839844 17.171875 22.78125 17.289063 22.699219 17.421875 C 22.621094 17.539063 22.5 17.648438 22.328125 17.730469 C 22.160156 17.808594 21.980469 17.851563 21.769531 17.851563 C 21.558594 17.851563 21.378906 17.808594 21.230469 17.738281 C 21.078125 17.671875 20.980469 17.570313 20.910156 17.449219 C 20.839844 17.328125 20.800781 17.230469 20.769531 17.140625 C 20.738281 17.050781 20.75 16.960938 20.75 16.878906 Z M 20.75 16.878906 "/>
</g>
</svg>

<?xml version="1.0" encoding="utf-8"?>
<!-- Generator: Adobe Illustrator 22.0.1, SVG Export Plug-In . SVG Version: 6.00 Build 0)  -->
<svg version="1.1" id="Layer_1" xmlns="http://www.w3.org/2000/svg" xmlns:xlink="http://www.w3.org/1999/xlink" x="0px" y="0px"
	 viewBox="0 0 30 30" style="enable-background:new 0 0 30 30;" xml:space="preserve">
<path d="M5.09,13.5c0,0.18,0.06,0.31,0.17,0.4c0.12,0.11,0.26,0.17,0.42,0.17h10.4c0.18,0,0.33,0.06,0.46,0.19
	c0.13,0.12,0.2,0.28,0.2,0.46s-0.07,0.34-0.2,0.47s-0.28,0.2-0.46,0.2c-0.18,0-0.34-0.07-0.47-0.21c-0.13-0.11-0.26-0.16-0.4-0.16
	c-0.16,0-0.3,0.05-0.41,0.16c-0.11,0.11-0.16,0.24-0.16,0.39c0,0.16,0.06,0.3,0.17,0.41c0.36,0.36,0.78,0.53,1.27,0.53
	c0.49,0,0.91-0.17,1.26-0.52c0.35-0.35,0.52-0.77,0.52-1.27c0-0.49-0.17-0.92-0.52-1.27c-0.35-0.35-0.77-0.53-1.26-0.53H5.68
	c-0.16,0-0.3,0.06-0.42,0.17C5.14,13.21,5.09,13.34,5.09,13.5z M5.09,11.48c0,0.17,0.06,0.3,0.17,0.39
	c0.12,0.11,0.26,0.16,0.42,0.16h13.81c0.49,0,0.92-0.18,1.27-0.52c0.35-0.35,0.52-0.77,0.52-1.27c0-0.49-0.17-0.91-0.52-1.26
	s-0.77-0.52-1.27-0.52c-0.49,0-0.91,0.17-1.27,0.51c-0.11,0.12-0.16,0.27-0.16,0.42c0,0.16,0.05,0.3,0.16,0.4
	c0.11,0.1,0.24,0.15,0.4,0.15c0.15,0,0.29-0.05,0.41-0.16c0.12-0.12,0.27-0.18,0.45-0.18c0.17,0,0.33,0.06,0.46,0.18
	c0.13,0.12,0.2,0.27,0.2,0.45c0,0.18-0.07,0.34-0.2,0.47c-0.13,0.13-0.28,0.2-0.46,0.2H5.68c-0.16,0-0.3,0.06-0.42,0.17
	C5.14,11.18,5.09,11.32,5.09,11.48z M18.18,19.76c0.02,0.39,0.11,0.73,0.28,1.02c0.17,0.29,0.39,0.51,0.67,0.67
	c0.28,0.16,0.58,0.27,0.9,0.34s0.67,0.11,1.04,0.11c0.57,0,1.09-0.11,1.55-0.32c0.47-0.21,0.84-0.48,1.13-0.81
	c0.29-0.33,0.53-0.7,0.73-1.13s0.33-0.84,0.41-1.23s0.12-0.78,0.12-1.15c0-1.06-0.27-1.87-0.81-2.43c-0.54-0.57-1.26-0.85-2.17-0.85
	c-0.93,0-1.72,0.28-2.36,0.85c-0.64,0.57-0.97,1.32-0.97,2.24c0,0.66,0.21,1.2,0.63,1.62c0.42,0.42,0.96,0.63,1.63,0.63
	c0.36,0,0.7-0.07,1.05-0.22c0.34-0.14,0.58-0.33,0.72-0.54h0.03c-0.12,0.48-0.31,0.88-0.58,1.22c-0.27,0.34-0.62,0.51-1.06,0.51
	c-0.29,0-0.48-0.03-0.59-0.1c-0.12-0.11-0.21-0.25-0.24-0.42H18.18z M20.75,16.88c0-0.31,0.1-0.58,0.29-0.81
	c0.19-0.23,0.48-0.34,0.86-0.34c0.34,0,0.6,0.09,0.77,0.26c0.18,0.17,0.27,0.43,0.27,0.76c0,0.09-0.02,0.2-0.06,0.31
	s-0.1,0.23-0.18,0.36c-0.08,0.12-0.2,0.23-0.37,0.31s-0.35,0.12-0.56,0.12s-0.39-0.04-0.54-0.11c-0.15-0.07-0.25-0.17-0.32-0.29
	c-0.07-0.12-0.11-0.22-0.14-0.31S20.75,16.96,20.75,16.88z"/>
</svg>
